X: 1
T: Tim Maloney's
R: reel
M: 4/4
L: 1/8
K: Gmaj
|:DG (3GGG Bd (3ddd|dedB gedB|G2 BG DGBG| c2 Bc AGEG|
DG (3GGG Bd (3ddd|dedB d2 gf|efed Bdef|gedB AGEG:|
|:d~g3 b~g3|eBBA Bdef|g2 bg abge|(3ded BG AGEG|
d~g3 b~g3|eBBA Bdgf|efed Bdef|gedB AGEG:|


Tune 621	Setting 26468

